gdscript/src/main/resources/icons/godot_editor/DirectionalLight3D.svg

<svg height="16" viewBox="0 0 16 16" width="16" xmlns="http://www.w3.org/2000/svg"><path d="m7 1v3h2v-3zm-2.5352 2.0508-1.4141 1.4141 1.4141 1.4141 1.4141-1.4141zm7.0703 0-1.4141 1.4141 1.4141 1.4141 1.4141-1.4141zm-3.5352 1.9492c-1.6569 0-3 1.3432-3 3s1.3431 3 3 3 3-1.3432 3-3-1.3431-3-3-3zm-7 2v2h3v-2zm11 0v2h3v-2zm-7.5352 3.1211-1.4141 1.4141 1.4141 1.4141 1.4141-1.4141zm7.0703 0-1.4141 1.4141 1.4141 1.4141 1.4141-1.4141zm-4.5352 1.8789v3h2v-3z" fill="#fc7f7f"/></svg>

<svg height="16" viewBox="0 0 16 16" width="16" xmlns="http://www.w3.org/2000/svg"><path d="M7 1v3h2V1zM4.465 3.05 3.05 4.466 4.464 5.88l1.414-1.414zm7.07 0-1.414 1.415 1.414 1.414 1.414-1.414zM8 5a2 2 0 0 0 0 6 2 2 0 0 0 0-6zM1 7v2h3V7zm11 0v2h3V7zm-7.535 3.121L3.05 11.535l1.414 1.414 1.414-1.414zm7.07 0-1.414 1.414 1.414 1.414 1.414-1.414zM7 12v3h2v-3z" fill="#fc7f7f"/></svg>
